packages/kaspersky-hexa-ui-icons/src/iconsSVGs/16/RemoteControl.svg

<svg width="16" height="16" viewBox="0 0 16 16" fill="none" xmlns="http://www.w3.org/2000/svg">
<path fill-rule="evenodd" clip-rule="evenodd" d="M1.021 3.70137C1.021 2.70726 1.82688 1.90137 2.821 1.90137H10.7058C11.6999 1.90137 12.5058 2.70725 12.5058 3.70137V4.76746H13.179C14.1731 4.76746 14.979 5.57334 14.979 6.56746V12.2989C14.979 13.293 14.1731 14.0989 13.179 14.0989H5.29414C4.30003 14.0989 3.49414 13.293 3.49414 12.2989V11.2328H2.821C1.82688 11.2328 1.021 10.4269 1.021 9.4328V3.70137ZM3.49414 9.9328V6.56746C3.49414 5.57334 4.30003 4.76746 5.29414 4.76746H11.2058V3.70137C11.2058 3.69183 11.2056 3.68235 11.205 3.67295H2.32179C2.32126 3.68236 2.321 3.69183 2.321 3.70137V9.4328C2.321 9.70894 2.54485 9.9328 2.821 9.9328H3.49414ZM4.79414 6.56746C4.79414 6.55792 4.79441 6.54844 4.79493 6.53904H13.6782C13.6787 6.54844 13.679 6.55792 13.679 6.56746V12.2989C13.679 12.575 13.4551 12.7989 13.179 12.7989H5.29414C5.018 12.7989 4.79414 12.575 4.79414 12.2989V6.56746Z" fill="black"/>
</svg>

<svg xmlns="http://www.w3.org/2000/svg" width="16" height="16" fill="none" viewBox="0 0 16 16"><path fill="#000" fill-rule="evenodd" d="M1.021 3.7013c0-.9942.8059-1.8 1.8-1.8h7.8848c.9941 0 1.8.8058 1.8 1.8v1.066h.6732c.9941 0 1.8.806 1.8 1.8v5.7315c0 .9941-.8059 1.8-1.8 1.8H5.2941c-.994 0-1.8-.8059-1.8-1.8v-1.0661H2.821c-.9941 0-1.8-.8059-1.8-1.8zm2.4731 6.2314V6.5673c0-.994.806-1.8 1.8-1.8h5.9117v-1.066a.5.5 0 0 0-.0008-.0285H2.3218a1 1 0 0 0-.0008.0284v5.7315a.5.5 0 0 0 .5.5zm1.3-3.3654q0-.0143.0008-.0284h8.8833a1 1 0 0 1 .0008.0284v5.7315a.5.5 0 0 1-.5.5H5.2941a.5.5 0 0 1-.5-.5z"/></svg>
